!!!COM:	Josquin des Pres?
**kern	**kern
*part2	*part1
*staff2	*staff1
*clefF4	*clefGv2
*k[]	*k[]
*M2/1	*M2/1
=1-	=1-
1C	1.G
2E	.
2F	2A
=2	=2
4G	2.B
4F	.
4G	.
4A	4c
2B	2d
[2c	[2e
=3	=3
2c]	4e]
.	4f
2B	2.g
2.c	.
.	4f
.	4e
4B	4d
=4	=4
4A	2e
4G	.
2F	4f
.	4e
2.G	4d
.	4c
.	4B
4F	4A
=5	=5
4E	2.e
4D	.
2.A	.
.	4d
.	4c
4G	4B
4F	4A
4E	4G
=6	=6
4D	2.d
4C	.
2.G	.
.	4c
.	4B
4F	4A
4E	[2e
4D	.
=7	=7
2C	4e]
.	4d
2E	1c
1D	.
.	2B
=8	=8
0C	1c
.	2r
.	2g
=9	=9
2r	2g
2c	2g
2c	1e
2c	.
=10	=10
2A	1f
2B	.
1c	2e
.	4c
.	4d
=11	=11
2.C	4e
.	4f
.	2g
4D	.
4E	4G
4F	4A
4G	4B
4A	4c
=12	=12
4B	4d
4G	4e
4A	4f
4B	4d
2c	4e
.	4f
4C	[2g
4D	.
=13	=13
4E	4g]
4F	4f
4G	1e
4E	.
1F	.
.	2d
=14	=14
1E	4e
.	4d
.	4c
.	4B
2r	1c
2C	.
=15	=15
2D	1B
2E	.
2.F	2r
.	2c
4E	.
=16	=16
2D	2d
2C	2e
2F	2.f
4D	.
4E	4e
=17	=17
4F	2d
4G	.
1A	2c
.	1f
4G	.
4F	.
=18	=18
0c	1e
.	2r
.	2c
=19	=19
2r	2d
2C	2e
2D	2f
2E	4e
.	4d
=20	=20
2.F	2c
.	4F
4E	4G
2D	4A
.	4B
2C	[2c
=21	=21
1F	2c]
.	4B
.	4A
1E	[1G
=22	=22
2r	1G]
2G	.
2A	2r
2B	2d
=23	=23
2c	2e
4B	2f
4A	.
2G	2.g
4C	.
4D	4f
=24	=24
4E	2e
4F	.
1G	2d
.	1g
4F	.
4E	.
=25	=25
2D	2f
2C	1e
[1c	.
.	4d
.	4c
=26	=26
2c]	1.g
4B	.
4A	.
2G	.
2A	4f
.	4e
=27	=27
2F	4f
.	4e
1G	4d
.	4c
.	2B
4F	[2d
4E	.
=28	=28
4F	2d]
4E	.
4D	1c
4C	.
1D	.
.	2B
=29	=29
0C	0c
==	==
*-	*-
